img/facebook.svg

<svg width="23" height="31" viewBox="0 0 23 31" fill="none" xmlns="http://www.w3.org/2000/svg">
<path fill-rule="evenodd" clip-rule="evenodd" d="M14.7844 8.16901V11.8004H21.8594L20.7281 17.4009H14.7844V31H6.81152V17.4009H0.329102V11.8004H6.81152V7.53538C6.81152 2.67758 10.6184 0 16.4543 0C19.2466 0 22.1646 0.381539 22.1646 0.381539V5.14396H18.9414C15.772 5.14396 14.7844 6.63605 14.7844 8.16901Z" fill="#B1B1B1"/>
</svg>

<svg xmlns="http://www.w3.org/2000/svg" width="23" height="31" fill="none"><path fill="#B1B1B1" fill-rule="evenodd" d="M14.784 8.169V11.8h7.075l-1.13 5.6h-5.945V31H6.812V17.4H.329v-5.6h6.483V7.535C6.812 2.678 10.618 0 16.454 0c2.793 0 5.71.382 5.71.382v4.762h-3.223c-3.169 0-4.157 1.492-4.157 3.025Z" clip-rule="evenodd"/></svg>
